X:1
T:The Tinker's Courtship
M:6/8
L:1/8
K:G
 D| GGG D2 E| =F2 E D2 D| G2 G GAB| c2 B A2 d| d2 d B2 d| c2 B A2 B|\
 c2 B A2 G|F-E F D3| G3/2 G/2 G D2 E| =FEF D2 D| G3/2 G/2 GA-B c| B2 A G2||\


